server/website/public/icons/base/calculator.svg

<svg width="48" height="48" viewBox="0 0 48 48" fill="none" xmlns="http://www.w3.org/2000/svg">
<path d="M9.75 48H38.25C39.5098 48 40.718 47.4943 41.6088 46.5941C42.4996 45.6939 43 44.473 43 43.2V4.8C43 3.52696 42.4996 2.30606 41.6088 1.40589C40.718 0.505713 39.5098 0 38.25 0H9.75C8.49022 0 7.28204 0.505713 6.39124 1.40589C5.50044 2.30606 5 3.52696 5 4.8V43.2C5 44.473 5.50044 45.6939 6.39124 46.5941C7.28204 47.4943 8.49022 48 9.75 48ZM16.875 40.8H12.125V36H16.875V40.8ZM16.875 31.2H12.125V26.4H16.875V31.2ZM16.875 21.6H12.125V16.8H16.875V21.6ZM26.375 40.8H21.625V36H26.375V40.8ZM26.375 31.2H21.625V26.4H26.375V31.2ZM26.375 21.6H21.625V16.8H26.375V21.6ZM35.875 40.8H31.125V26.4H35.875V40.8ZM35.875 21.6H31.125V16.8H35.875V21.6ZM9.75 4.8H38.25V12H9.75V4.8Z" fill="black"/>
</svg>

<svg width="48" height="48" fill="none" xmlns="http://www.w3.org/2000/svg"><path d="M9.75 48h28.5c1.26 0 2.468-.506 3.359-1.406A4.826 4.826 0 0043 43.2V4.8c0-1.273-.5-2.494-1.391-3.394A4.725 4.725 0 0038.25 0H9.75C8.49 0 7.282.506 6.391 1.406A4.826 4.826 0 005 4.8v38.4c0 1.273.5 2.494 1.391 3.394.891.9 2.1 1.406 3.359 1.406zm7.125-7.2h-4.75V36h4.75v4.8zm0-9.6h-4.75v-4.8h4.75v4.8zm0-9.6h-4.75v-4.8h4.75v4.8zm9.5 19.2h-4.75V36h4.75v4.8zm0-9.6h-4.75v-4.8h4.75v4.8zm0-9.6h-4.75v-4.8h4.75v4.8zm9.5 19.2h-4.75V26.4h4.75v14.4zm0-19.2h-4.75v-4.8h4.75v4.8zM9.75 4.8h28.5V12H9.75V4.8z" fill="#000"/></svg>
